Newaita-dark/.places-blue/64/folder-script.svg

<?xml version="1.0" encoding="UTF-8"?>
<svg xmlns="http://www.w3.org/2000/svg" xmlns:xlink="http://www.w3.org/1999/xlink" width="64px" height="64px" viewBox="0 0 64 64" version="1.1">
<defs>
<linearGradient id="linear0" gradientUnits="userSpaceOnUse" x1="254" y1="233.5" x2="254" y2="254.666672" gradientTransform="matrix(0.125012,0,0,0.125012,-0.00000763012,26.877574)">
<stop offset="0" style="stop-color:rgb(0%,0%,0%);stop-opacity:0.27451;"/>
<stop offset="1" style="stop-color:rgb(0%,0%,0%);stop-opacity:0;"/>
</linearGradient>
<radialGradient id="radial0" gradientUnits="userSpaceOnUse" cx="450.908936" cy="189.579361" fx="450.908936" fy="189.579361" r="21.166656" gradientTransform="matrix(0.000000348341,-0.156265,-0.281277,-0.000000203077,108.230425,127.190669)">
<stop offset="0" style="stop-color:rgb(0%,0%,0%);stop-opacity:0.313726;"/>
<stop offset="0.222222" style="stop-color:rgb(0%,0%,0%);stop-opacity:0.27451;"/>
<stop offset="1" style="stop-color:rgb(0%,0%,0%);stop-opacity:0;"/>
</radialGradient>
<radialGradient id="radial1" gradientUnits="userSpaceOnUse" cx="450.908936" cy="189.579361" fx="450.908936" fy="189.579361" r="21.166656" gradientTransform="matrix(-0.000000348341,0.156265,0.281277,0.000000203077,-44.724356,-15.054954)">
<stop offset="0" style="stop-color:rgb(0%,0%,0%);stop-opacity:0.313726;"/>
<stop offset="0.222222" style="stop-color:rgb(0%,0%,0%);stop-opacity:0.27451;"/>
<stop offset="1" style="stop-color:rgb(0%,0%,0%);stop-opacity:0;"/>
</radialGradient>
<radialGradient id="radial2" gradientUnits="userSpaceOnUse" cx="450.908936" cy="189.579361" fx="450.908936" fy="189.579361" r="21.166656" gradientTransform="matrix(-0.000000348341,-0.156265,0.281277,-0.000000203077,-44.724356,127.190669)">
<stop offset="0" style="stop-color:rgb(0%,0%,0%);stop-opacity:0.313726;"/>
<stop offset="0.222222" style="stop-color:rgb(0%,0%,0%);stop-opacity:0.27451;"/>
<stop offset="1" style="stop-color:rgb(0%,0%,0%);stop-opacity:0;"/>
</radialGradient>
<radialGradient id="radial3" gradientUnits="userSpaceOnUse" cx="450.908936" cy="189.579361" fx="450.908936" fy="189.579361" r="21.166656" gradientTransform="matrix(0.000000348341,0.156265,-0.281277,0.000000203077,108.230422,-15.054955)">
<stop offset="0" style="stop-color:rgb(0%,0%,0%);stop-opacity:0.313726;"/>
<stop offset="0.222222" style="stop-color:rgb(0%,0%,0%);stop-opacity:0.27451;"/>
<stop offset="1" style="stop-color:rgb(0%,0%,0%);stop-opacity:0;"/>
</radialGradient>
<linearGradient id="linear1" gradientUnits="userSpaceOnUse" x1="254" y1="-147.5" x2="254" y2="-31.083334" gradientTransform="matrix(0.125012,0,0,0.125012,0.00000249951,26.877563)">
<stop offset="0" style="stop-color:rgb(64.313728%,64.313728%,64.313728%);stop-opacity:0;"/>
<stop offset="1" style="stop-color:rgb(100%,100%,100%);stop-opacity:0.196078;"/>
</linearGradient>
<linearGradient id="linear2" gradientUnits="userSpaceOnUse" x1="254" y1="233.5" x2="254" y2="-105.166656" gradientTransform="matrix(0.125012,0,0,0.125012,-0.00000362479,26.877566)">
<stop offset="0" style="stop-color:rgb(34.509805%,34.509805%,34.509805%);stop-opacity:0;"/>
<stop offset="1" style="stop-color:rgb(98.039216%,98.039216%,98.039216%);stop-opacity:0.196078;"/>
</linearGradient>
</defs>
<g id="surface1">
<path style=" stroke:none;fill-rule:nonzero;fill:url(#linear0);" d="M 7.9375 56.066406 L 55.566406 56.066406 L 55.566406 58.714844 L 7.9375 58.714844 Z M 7.9375 56.066406 "/>
<path style=" stroke:none;fill-rule:nonzero;fill:url(#radial0);" d="M 55.566406 56.066406 L 60.859375 56.066406 L 60.859375 53.421875 L 55.566406 53.421875 Z M 55.566406 56.066406 "/>
<path style=" stroke:none;fill-rule:nonzero;fill:url(#radial1);" d="M 7.9375 56.066406 L 2.644531 56.066406 L 2.644531 58.714844 L 7.9375 58.714844 Z M 7.9375 56.066406 "/>
<path style=" stroke:none;fill-rule:nonzero;fill:url(#radial2);" d="M 7.9375 56.066406 L 2.644531 56.066406 L 2.644531 53.421875 L 7.9375 53.421875 Z M 7.9375 56.066406 "/>
<path style=" stroke:none;fill-rule:nonzero;fill:url(#radial3);" d="M 55.566406 56.066406 L 60.859375 56.066406 L 60.859375 58.714844 L 55.566406 58.714844 Z M 55.566406 56.066406 "/>
<path style=" stroke:none;fill-rule:nonzero;fill:rgb(25.882354%,64.705884%,96.078432%);fill-opacity:1;" d="M 14.554688 8.4375 L 57.550781 8.4375 C 59.015625 8.4375 60.199219 9.621094 60.199219 11.085938 L 60.199219 21.007812 C 60.199219 22.46875 59.015625 23.652344 57.550781 23.652344 L 14.554688 23.652344 C 13.09375 23.652344 11.90625 22.46875 11.90625 21.007812 L 11.90625 11.085938 C 11.90625 9.621094 13.09375 8.4375 14.554688 8.4375 Z M 14.554688 8.4375 "/>
<path style=" stroke:none;fill-rule:nonzero;fill:url(#linear1);" d="M 14.554688 8.4375 L 57.550781 8.4375 C 59.015625 8.4375 60.199219 9.621094 60.199219 11.085938 L 60.199219 21.007812 C 60.199219 22.46875 59.015625 23.652344 57.550781 23.652344 L 14.554688 23.652344 C 13.09375 23.652344 11.90625 22.46875 11.90625 21.007812 L 11.90625 11.085938 C 11.90625 9.621094 13.09375 8.4375 14.554688 8.4375 Z M 14.554688 8.4375 "/>
<path style=" stroke:none;fill-rule:nonzero;fill:rgb(100%,100%,100%);fill-opacity:0.392157;" d="M 14.554688 8.613281 C 13.085938 8.613281 11.90625 9.792969 11.90625 11.261719 L 11.90625 11.589844 C 11.90625 10.125 13.085938 8.945312 14.554688 8.945312 L 57.550781 8.945312 C 59.019531 8.945312 60.199219 10.125 60.199219 11.589844 L 60.199219 11.261719 C 60.199219 9.792969 59.019531 8.613281 57.550781 8.613281 Z M 14.554688 8.613281 "/>
<path style=" stroke:none;fill-rule:nonzero;fill:rgb(12.941177%,12.941177%,12.941177%);fill-opacity:1;" d="M 14.554688 8.25 C 12.988281 8.25 11.71875 9.519531 11.71875 11.085938 L 11.71875 21.007812 C 11.71875 22.574219 12.988281 23.839844 14.554688 23.839844 L 57.550781 23.839844 C 59.117188 23.839844 60.386719 22.574219 60.386719 21.007812 L 60.386719 11.085938 C 60.386719 9.519531 59.117188 8.25 57.550781 8.25 Z M 14.554688 8.625 L 57.550781 8.625 C 58.917969 8.625 60.011719 9.71875 60.011719 11.085938 L 60.011719 21.007812 C 60.011719 22.371094 58.917969 23.464844 57.550781 23.464844 L 14.554688 23.464844 C 13.1875 23.464844 12.09375 22.371094 12.09375 21.007812 L 12.09375 11.085938 C 12.09375 9.71875 13.1875 8.625 14.554688 8.625 Z M 14.554688 8.625 "/>
<path style=" stroke:none;fill-rule:nonzero;fill:rgb(39.215687%,70.980394%,96.470588%);fill-opacity:1;" d="M 5.292969 13.730469 C 3.828125 13.730469 2.644531 14.910156 2.644531 16.375 L 2.644531 53.421875 C 2.644531 54.886719 3.828125 56.066406 5.292969 56.066406 L 58.214844 56.066406 C 59.679688 56.066406 60.859375 54.886719 60.859375 53.421875 L 60.859375 20.34375 L 25.136719 20.34375 C 23.671875 20.34375 22.492188 19.164062 22.492188 17.699219 L 22.492188 13.730469 Z M 5.292969 13.730469 "/>
<path style=" stroke:none;fill-rule:nonzero;fill:url(#linear2);" d="M 5.292969 13.730469 C 3.828125 13.730469 2.644531 14.910156 2.644531 16.375 L 2.644531 53.421875 C 2.644531 54.886719 3.828125 56.066406 5.292969 56.066406 L 58.214844 56.066406 C 59.679688 56.066406 60.859375 54.886719 60.859375 53.421875 L 60.859375 20.34375 L 25.136719 20.34375 C 23.671875 20.34375 22.492188 19.164062 22.492188 17.699219 L 22.492188 13.730469 Z M 5.292969 13.730469 "/>
<path style=" stroke:none;fill-rule:nonzero;fill:rgb(0%,0%,0%);fill-opacity:0.196078;" d="M 5.292969 56.066406 C 3.828125 56.066406 2.644531 54.886719 2.644531 53.421875 L 2.644531 53.089844 C 2.644531 54.558594 3.828125 55.738281 5.292969 55.738281 L 58.214844 55.738281 C 59.679688 55.738281 60.859375 54.558594 60.859375 53.089844 L 60.859375 53.421875 C 60.859375 54.886719 59.679688 56.066406 58.214844 56.066406 Z M 5.292969 56.066406 "/>
<path style=" stroke:none;fill-rule:nonzero;fill:rgb(100%,100%,100%);fill-opacity:0.392157;" d="M 5.292969 13.90625 C 3.828125 13.90625 2.644531 15.085938 2.644531 16.550781 L 2.644531 16.882812 C 2.644531 15.417969 3.828125 14.238281 5.292969 14.238281 L 22.492188 14.238281 L 22.492188 13.90625 Z M 5.292969 13.90625 "/>
<path style=" stroke:none;fill-rule:nonzero;fill:rgb(100%,100%,100%);fill-opacity:0.392157;" d="M 24.972656 20.6875 C 23.507812 20.6875 22.328125 19.507812 22.328125 18.039062 L 22.328125 17.710938 C 22.328125 19.175781 23.507812 20.359375 24.972656 20.355469 L 60.859375 20.355469 L 60.859375 20.6875 Z M 24.972656 20.6875 "/>
<path style=" stroke:none;fill-rule:nonzero;fill:rgb(12.941177%,12.941177%,12.941177%);fill-opacity:1;" d="M 5.292969 13.542969 C 3.726562 13.542969 2.457031 14.808594 2.457031 16.375 L 2.457031 53.421875 C 2.457031 54.988281 3.726562 56.253906 5.292969 56.253906 L 58.214844 56.253906 C 59.78125 56.253906 61.046875 54.988281 61.046875 53.421875 L 61.046875 19.96875 L 25.136719 19.96875 C 23.773438 19.96875 22.679688 18.878906 22.679688 17.511719 L 22.679688 13.542969 Z M 5.292969 13.917969 L 22.304688 13.917969 L 22.304688 17.511719 C 22.304688 19.078125 23.570312 20.34375 25.136719 20.34375 L 60.671875 20.34375 L 60.671875 53.421875 C 60.671875 54.785156 59.578125 55.878906 58.214844 55.878906 L 5.292969 55.878906 C 3.925781 55.878906 2.832031 54.785156 2.832031 53.421875 L 2.832031 16.375 C 2.832031 15.011719 3.925781 13.917969 5.292969 13.917969 Z M 5.292969 13.917969 "/>
<path style=" stroke:none;fill-rule:nonzero;fill:rgb(12.941177%,58.823532%,95.294118%);fill-opacity:1;" d="M 24.816406 25.566406 C 24.480469 25.566406 24.140625 25.695312 23.882812 25.953125 L 22.945312 26.890625 C 22.425781 27.40625 22.425781 28.242188 22.945312 28.761719 L 30.429688 36.246094 L 22.945312 43.730469 C 22.425781 44.246094 22.425781 45.082031 22.945312 45.601562 L 23.882812 46.535156 C 24.398438 47.054688 25.234375 47.054688 25.753906 46.535156 L 35.109375 37.179688 C 35.625 36.660156 35.625 35.828125 35.109375 35.308594 L 34.171875 34.375 L 25.753906 25.953125 C 25.492188 25.695312 25.15625 25.566406 24.816406 25.566406 Z M 33.074219 42.859375 C 32.34375 42.859375 31.753906 43.449219 31.753906 44.183594 L 31.753906 45.503906 C 31.753906 46.238281 32.34375 46.828125 33.074219 46.828125 L 39.691406 46.828125 C 40.425781 46.828125 41.015625 46.238281 41.015625 45.503906 L 41.015625 44.183594 C 41.015625 43.449219 40.425781 42.859375 39.691406 42.859375 Z M 33.074219 42.859375 "/>
<path style=" stroke:none;fill-rule:nonzero;fill:rgb(0%,0%,0%);fill-opacity:0.235294;" d="M 24.816406 25.566406 C 24.480469 25.566406 24.140625 25.695312 23.882812 25.953125 L 22.945312 26.890625 C 22.617188 27.21875 22.496094 27.671875 22.585938 28.09375 C 22.636719 27.847656 22.753906 27.617188 22.945312 27.425781 L 23.882812 26.488281 C 24.140625 26.230469 24.480469 26.101562 24.816406 26.101562 C 25.15625 26.101562 25.492188 26.230469 25.753906 26.488281 L 34.171875 34.910156 L 35.109375 35.84375 C 35.296875 36.035156 35.417969 36.269531 35.46875 36.511719 C 35.554688 36.089844 35.4375 35.636719 35.109375 35.308594 L 34.171875 34.375 L 25.753906 25.953125 C 25.492188 25.695312 25.15625 25.566406 24.816406 25.566406 Z M 30.160156 36.511719 L 22.945312 43.730469 C 22.617188 44.058594 22.496094 44.511719 22.585938 44.933594 C 22.636719 44.6875 22.753906 44.457031 22.945312 44.265625 L 30.429688 36.78125 Z M 33.074219 42.859375 C 32.34375 42.859375 31.753906 43.449219 31.753906 44.183594 L 31.753906 44.71875 C 31.753906 43.984375 32.34375 43.394531 33.074219 43.394531 L 39.691406 43.394531 C 40.425781 43.394531 41.015625 43.984375 41.015625 44.71875 L 41.015625 44.183594 C 41.015625 43.449219 40.425781 42.859375 39.691406 42.859375 Z M 33.074219 42.859375 "/>
<path style=" stroke:none;fill-rule:nonzero;fill:rgb(100%,100%,100%);fill-opacity:0.392157;" d="M 22.582031 28.050781 C 22.5 28.464844 22.621094 28.910156 22.945312 29.234375 L 30.183594 36.46875 L 30.429688 36.222656 L 22.945312 28.738281 C 22.75 28.542969 22.628906 28.300781 22.582031 28.050781 Z M 35.472656 36.46875 C 35.425781 36.722656 35.304688 36.960938 35.109375 37.15625 L 25.753906 46.511719 C 25.234375 47.03125 24.398438 47.03125 23.882812 46.511719 L 22.945312 45.578125 C 22.75 45.382812 22.628906 45.140625 22.582031 44.890625 C 22.5 45.304688 22.621094 45.75 22.945312 46.074219 L 23.882812 47.007812 C 24.398438 47.527344 25.234375 47.527344 25.753906 47.007812 L 35.109375 37.652344 C 35.429688 37.332031 35.550781 36.886719 35.472656 36.46875 Z M 31.753906 45.484375 L 31.753906 45.980469 C 31.753906 46.710938 32.34375 47.300781 33.074219 47.300781 L 39.691406 47.300781 C 40.425781 47.300781 41.015625 46.710938 41.015625 45.980469 L 41.015625 45.484375 C 41.015625 46.214844 40.425781 46.804688 39.691406 46.804688 L 33.074219 46.804688 C 32.34375 46.804688 31.753906 46.214844 31.753906 45.484375 Z M 31.753906 45.484375 "/>
<path style=" stroke:none;fill-rule:nonzero;fill:rgb(12.941177%,12.941177%,12.941177%);fill-opacity:1;" d="M 24.816406 25.378906 C 24.429688 25.378906 24.042969 25.527344 23.75 25.820312 L 22.8125 26.757812 C 22.222656 27.347656 22.222656 28.304688 22.8125 28.894531 L 30.164062 36.246094 L 22.8125 43.597656 C 22.222656 44.1875 22.222656 45.144531 22.8125 45.730469 L 23.75 46.667969 C 24.339844 47.257812 25.296875 47.257812 25.886719 46.667969 L 34.304688 38.246094 L 35.242188 37.3125 C 35.828125 36.722656 35.828125 35.765625 35.242188 35.175781 L 34.304688 34.242188 L 25.886719 25.820312 C 25.589844 25.527344 25.203125 25.378906 24.816406 25.378906 Z M 24.816406 25.753906 C 25.105469 25.753906 25.394531 25.863281 25.621094 26.085938 L 34.039062 34.507812 L 34.976562 35.441406 C 35.421875 35.890625 35.421875 36.601562 34.976562 37.046875 L 25.621094 46.402344 C 25.171875 46.851562 24.460938 46.851562 24.015625 46.402344 L 23.078125 45.46875 C 22.632812 45.019531 22.632812 44.308594 23.078125 43.863281 L 30.695312 36.246094 L 23.078125 28.628906 C 22.632812 28.179688 22.632812 27.46875 23.078125 27.023438 L 24.015625 26.085938 C 24.238281 25.863281 24.527344 25.753906 24.816406 25.753906 Z M 33.074219 42.671875 C 32.242188 42.671875 31.566406 43.347656 31.566406 44.183594 L 31.566406 45.503906 C 31.566406 46.339844 32.242188 47.015625 33.074219 47.015625 L 39.691406 47.015625 C 40.523438 47.015625 41.203125 46.339844 41.203125 45.503906 L 41.203125 44.183594 C 41.203125 43.347656 40.523438 42.671875 39.691406 42.671875 Z M 33.074219 43.046875 L 39.691406 43.046875 C 40.324219 43.046875 40.828125 43.550781 40.828125 44.183594 L 40.828125 45.503906 C 40.828125 46.136719 40.324219 46.640625 39.691406 46.640625 L 33.074219 46.640625 C 32.445312 46.640625 31.941406 46.136719 31.941406 45.503906 L 31.941406 44.183594 C 31.941406 43.550781 32.445312 43.046875 33.074219 43.046875 Z M 33.074219 43.046875 "/>
</g>
</svg>

<svg xmlns="http://www.w3.org/2000/svg" width="64pt" height="64pt" viewBox="0 0 64 64"><defs><linearGradient id="a" gradientUnits="userSpaceOnUse" x1="254" y1="233.5" x2="254" y2="254.667" gradientTransform="translate(0 26.878) scale(.12501)"><stop offset="0" stop-opacity=".275"/><stop offset="1" stop-opacity="0"/></linearGradient><radialGradient id="b" gradientUnits="userSpaceOnUse" cx="450.909" cy="189.579" fx="450.909" fy="189.579" r="21.167" gradientTransform="matrix(0 -.15626 -.28128 0 108.23 127.19)"><stop offset="0" stop-opacity=".314"/><stop offset=".222" stop-opacity=".275"/><stop offset="1" stop-opacity="0"/></radialGradient><radialGradient id="c" gradientUnits="userSpaceOnUse" cx="450.909" cy="189.579" fx="450.909" fy="189.579" r="21.167" gradientTransform="matrix(0 .15626 .28128 0 -44.724 -15.055)"><stop offset="0" stop-opacity=".314"/><stop offset=".222" stop-opacity=".275"/><stop offset="1" stop-opacity="0"/></radialGradient><radialGradient id="d" gradientUnits="userSpaceOnUse" cx="450.909" cy="189.579" fx="450.909" fy="189.579" r="21.167" gradientTransform="matrix(0 -.15626 .28128 0 -44.724 127.19)"><stop offset="0" stop-opacity=".314"/><stop offset=".222" stop-opacity=".275"/><stop offset="1" stop-opacity="0"/></radialGradient><radialGradient id="e" gradientUnits="userSpaceOnUse" cx="450.909" cy="189.579" fx="450.909" fy="189.579" r="21.167" gradientTransform="matrix(0 .15626 -.28128 0 108.23 -15.055)"><stop offset="0" stop-opacity=".314"/><stop offset=".222" stop-opacity=".275"/><stop offset="1" stop-opacity="0"/></radialGradient><linearGradient id="f" gradientUnits="userSpaceOnUse" x1="254" y1="-147.5" x2="254" y2="-31.083" gradientTransform="translate(0 26.878) scale(.12501)"><stop offset="0" stop-color="#a4a4a4" stop-opacity="0"/><stop offset="1" stop-color="#fff" stop-opacity=".196"/></linearGradient><linearGradient id="g" gradientUnits="userSpaceOnUse" x1="254" y1="233.5" x2="254" y2="-105.167" gradientTransform="translate(0 26.878) scale(.12501)"><stop offset="0" stop-color="#585858" stop-opacity="0"/><stop offset="1" stop-color="#fafafa" stop-opacity=".196"/></linearGradient><linearGradient id="h" gradientUnits="userSpaceOnUse" x1="243.417" y1="-147.5" x2="243.417" y2="233.5" gradientTransform="translate(0 26.878) scale(.12501)"><stop offset="0" stop-color="#a4a4a4" stop-opacity="0"/><stop offset="1" stop-color="#fff" stop-opacity=".196"/></linearGradient></defs><path d="M7.938 56.066h47.628v2.649H7.937zm0 0" fill="url(#a)"/><path d="M55.566 56.066h5.293v-2.644h-5.293zm0 0" fill="url(#b)"/><path d="M7.938 56.066H2.644v2.649h5.292zm0 0" fill="url(#c)"/><path d="M7.938 56.066H2.644v-2.644h5.292zm0 0" fill="url(#d)"/><path d="M55.566 56.066h5.293v2.649h-5.293zm0 0" fill="url(#e)"/><path d="M14.555 8.438H57.55a2.646 2.646 0 0 1 2.648 2.648v9.922a2.645 2.645 0 0 1-2.648 2.644H14.555a2.647 2.647 0 0 1-2.649-2.644v-9.922a2.648 2.648 0 0 1 2.649-2.649zm0 0" fill="#1e88e5"/><path d="M14.555 8.438H57.55a2.646 2.646 0 0 1 2.648 2.648v9.922a2.645 2.645 0 0 1-2.648 2.644H14.555a2.647 2.647 0 0 1-2.649-2.644v-9.922a2.648 2.648 0 0 1 2.649-2.649zm0 0" fill="url(#f)"/><path d="M14.555 8.438a2.64 2.64 0 0 0-2.649 2.648v.328a2.64 2.64 0 0 1 2.649-2.644H57.55a2.64 2.64 0 0 1 2.648 2.644v-.328a2.64 2.64 0 0 0-2.648-2.649zm0 0" fill="#e6e6e6" fill-opacity=".588"/><path d="M14.555 8.25a2.836 2.836 0 0 0-2.836 2.836v9.922a2.832 2.832 0 0 0 2.836 2.832H57.55a2.832 2.832 0 0 0 2.836-2.832v-9.922A2.836 2.836 0 0 0 57.55 8.25zm0 .375H57.55a2.45 2.45 0 0 1 2.46 2.46v9.923a2.45 2.45 0 0 1-2.46 2.457H14.555a2.45 2.45 0 0 1-2.461-2.457v-9.922a2.45 2.45 0 0 1 2.46-2.461zm0 0" fill="#212121"/><path d="M5.293 13.73a2.642 2.642 0 0 0-2.648 2.645v37.047a2.642 2.642 0 0 0 2.648 2.644h52.922a2.639 2.639 0 0 0 2.644-2.644V20.344H25.137a2.639 2.639 0 0 1-2.645-2.645V13.73zm0 0" fill="#42a5f5"/><path d="M5.293 13.73a2.642 2.642 0 0 0-2.648 2.645v37.047a2.642 2.642 0 0 0 2.648 2.644h52.922a2.639 2.639 0 0 0 2.644-2.644V20.344H25.137a2.639 2.639 0 0 1-2.645-2.645V13.73zm0 0" fill="url(#g)"/><path d="M5.293 56.066a2.642 2.642 0 0 1-2.648-2.644v-.332a2.643 2.643 0 0 0 2.648 2.648h52.922a2.64 2.64 0 0 0 2.644-2.648v.332a2.639 2.639 0 0 1-2.644 2.644zm0 0" fill-opacity=".196"/><path d="M5.293 13.73a2.642 2.642 0 0 0-2.648 2.645v.332a2.642 2.642 0 0 1 2.648-2.645h17.2v-.332zm0 0M24.973 20.512a2.64 2.64 0 0 1-2.645-2.649v-.328a2.637 2.637 0 0 0 2.645 2.645h35.886v.332zm0 0" fill="#e6e6e6" fill-opacity=".937"/><path d="M5.293 13.543a2.832 2.832 0 0 0-2.836 2.832v37.047a2.832 2.832 0 0 0 2.836 2.832h52.922a2.83 2.83 0 0 0 2.832-2.832V19.969h-35.91a2.447 2.447 0 0 1-2.457-2.457v-3.969zm0 .375h17.012v3.594a2.83 2.83 0 0 0 2.832 2.832h35.535v33.078a2.449 2.449 0 0 1-2.457 2.457H5.293a2.45 2.45 0 0 1-2.461-2.457V16.375a2.45 2.45 0 0 1 2.461-2.457zm0 0" fill="#212121"/><path d="M24.816 25.566a1.32 1.32 0 0 0-.933.387l-.938.938a1.318 1.318 0 0 0 0 1.87l7.485 7.485-7.485 7.484a1.318 1.318 0 0 0 0 1.872l.938.933c.515.52 1.351.52 1.87 0l9.356-9.355a1.325 1.325 0 0 0 0-1.871l-.937-.934-8.418-8.422a1.328 1.328 0 0 0-.938-.387zm8.258 17.293c-.73 0-1.32.59-1.32 1.325v1.32c0 .734.59 1.324 1.32 1.324h6.617a1.32 1.32 0 0 0 1.325-1.324v-1.32a1.32 1.32 0 0 0-1.325-1.325zm0 0" fill="#1e88e5"/><path d="M24.816 25.566a1.32 1.32 0 0 0-.933.387l-.938.938a1.318 1.318 0 0 0 0 1.87l7.485 7.485-7.485 7.484a1.318 1.318 0 0 0 0 1.872l.938.933c.515.52 1.351.52 1.87 0l9.356-9.355a1.325 1.325 0 0 0 0-1.871l-.937-.934-8.418-8.422a1.328 1.328 0 0 0-.938-.387zm8.258 17.293c-.73 0-1.32.59-1.32 1.325v1.32c0 .734.59 1.324 1.32 1.324h6.617a1.32 1.32 0 0 0 1.325-1.324v-1.32a1.32 1.32 0 0 0-1.325-1.325zm0 0" fill="url(#h)"/><path d="M24.816 25.379c-.386 0-.773.148-1.066.441l-.938.938c-.59.59-.59 1.547 0 2.137l7.352 7.351-7.352 7.352c-.59.59-.59 1.547 0 2.132l.938.938c.59.59 1.547.59 2.137 0l8.418-8.422.937-.934a1.518 1.518 0 0 0 0-2.136l-.937-.934-8.418-8.422a1.521 1.521 0 0 0-1.07-.441zm0 .375c.29 0 .579.11.805.332l8.418 8.422.938.933c.445.45.445 1.16 0 1.606l-9.356 9.355c-.45.45-1.16.45-1.605 0l-.938-.933a1.132 1.132 0 0 1 0-1.606l7.617-7.617-7.617-7.617a1.132 1.132 0 0 1 0-1.606l.938-.937c.222-.223.511-.332.8-.332zm8.258 16.918a1.51 1.51 0 0 0-1.508 1.512v1.32a1.51 1.51 0 0 0 1.508 1.512h6.617c.832 0 1.512-.676 1.512-1.512v-1.32c0-.836-.68-1.512-1.512-1.512zm0 .375h6.617a1.13 1.13 0 0 1 1.137 1.137v1.32a1.13 1.13 0 0 1-1.137 1.137h-6.617a1.13 1.13 0 0 1-1.133-1.137v-1.32a1.13 1.13 0 0 1 1.133-1.137zm0 0" fill="#212121"/></svg>
